X:815
M:6/8
L:1/8
K:D
a|a2f f2d|A2a agf|g2e e2c|A2g gfe|f2d g2e|a2f bag|fed edc|d3 d2a|agf fed|

